X:30
T:Impression di Natale
C:Amadei
N:TablEdited by Mike Stangeland
L:1/8
Q:1/4=140
M:4/4
K:A
z8 | z8 | C/4E/4A/4e/4e3/8e3/8e/4 e3/8e3/8e/4e3/8e3/8e/4 e3/8e3/8f/4f3/8g3/8g/4 a3/8a3/8g/4g3/8f3/8f/4 | 
e3/2c/ A3/2c/ B3/2G/ F3/2E/ | C/4E/4A/4e/4e3/8e3/8e/4 e3/8e3/8e/4e3/8e3/8e/4 e3/8e3/8f/4f3/8g3/8g/4 a3/8a3/8g/4g3/8f3/8f/4 | 
e3/2c/ A3/2c/ B3/2G/ F3/2E/ | A3/8A3/8A/4A3/8A3/8A/4 A3/8A3/8A/4A3/8A3/8A/4 F3/8F3/8G/4G3/8A3/8A/4 B3/8B3/8c/4c3/8d3/8d/4 | 
ee ee f3/8f3/8g/4g3/8a3/8a/4 b3/8b3/8c'/4c'3/8d'3/8d'/4 | e'3/8e'3/8e'/4e'3/8e'3/8e'/4 e'3/8e'3/8e'/4e'3/8e'3/8e'/4 e'3/2d'/ b3/2d'/ | 
c'3/2e'/ c'3/2a/ f3/2b/ g3/2e/ | f3/8f3/8f/4f3/8f3/8f/4 f3/8f3/8f/4f3/8f3/8f/4 F3/8F3/8G/4G3/8A3/8A/4 B3/8B3/8c/4c3/8d3/8d/4 | 
ee ee f3/8f3/8g/4g3/8a3/8a/4 b3/8b3/8c'/4c'3/8d'3/8d'/4 | e'3/8e'3/8e'/4e'3/8e'3/8e'/4 e'3/8e'3/8e'/4e'3/8e'3/8e'/4 e'3/2d'/ b3/2d'/ | 
c'3/2e'/ c'3/2a/ f3/2b/ g3/2e/ | a3/8a3/8a/4a3/8a3/8a/4 a3/8a3/8a/4a3/8a3/8a/4 =g3/2f/ g3/2b/ | 
a3/8a3/8a/4a3/8a3/8a/4 a3/8a3/8a/4a3/8a3/8a/4 =g3/2f/ g3/2b/ | a3/8a3/8a/4a3/8a3/8a/4 a3/8a3/8a/4a3/8a3/8a/4 g3/2f/ e3/2d/ | 
c3/2B/ A3/2G/ F3/2B/ G3/2E/ | F3/8F3/8F/4F3/8F3/8F/4 F3/8F3/8F/4F3/8F3/8F/4 =G3/2E/ G3/2B/ | 
A3/8A3/8A/4A3/8A3/8A/4 A3/8A3/8A/4A3/8A3/8A/4 =G3/2E/ G3/2B/ | A3/8A3/8A/4A3/8A3/8A/4 A3/8A3/8A/4A3/8A3/8A/4 G3/2F/ E3/2F/ | 
G3/2A/ B3/2c/ d3/2e/ f3/2g/ | e3/8e3/8e/4e3/8e3/8e/4 e3/8e3/8e/4e3/8e3/8e/4 e3/8e3/8f/4f3/8g3/8g/4 a3/8a3/8g/4g3/8f3/8f/4 | 
e3/2c/ A3/2c/ B3/2G/ F3/2E/ | e3/8e3/8e/4e3/8e3/8e/4 e3/8e3/8e/4e3/8e3/8e/4 e3/8e3/8f/4f3/8g3/8g/4 a3/8a3/8g/4g3/8f3/8f/4 | 
e3/2c/ A3/2c/ B3/2G/ F3/2E/ | A3/8A3/8A/4A3/8A3/8A/4 A3/8A3/8A3/4e/ G3/8G3/8G/4G3/8G3/8G/4 G3/8G3/8G3/4e/ | 
F3/8F3/8F/4F3/8F3/8F/4 F3/8F3/8F3/4e/ G3/8G3/8G/4G3/8G3/8G/4 G3/8G3/8G3/4e/ | 
A3/8A3/8A/4A3/8A3/8A/4 A3/8A3/8A3/4e/ G3/8G3/8G/4G3/8G3/8G/4 G3/8G3/8G3/4e/ | 
F3/8F3/8F/4F3/8F3/8F/4 F3/8F3/8F3/4e/ G3/8G3/8G/4G3/8G3/8G/4 G3/8G3/8G3/4e/ | 
A3/8A3/8A/4A3/8A3/8A/4 A3/8A3/8A/4A3/8A3/8A/4 F3/8F3/8G/4G3/8A3/8A/4 B3/8B3/8c/4c3/8d3/8d/4 | 
ee ee f3/8f3/8g/4g3/8a3/8a/4 b3/8b3/8c'/4c'3/8d'3/8d'/4 | e'3/8e'3/8e'/4e'3/8e'3/8e'/4 e'3/8e'3/8e'/4e'3/8e'3/8e'/4 e'3/2d'/ b3/2d'/ | 
c'3/2e'/ c'3/2a/ f3/2b/ g3/2e/ | f3/8f3/8f/4f3/8f3/8f/4 f3/8f3/8f/4f3/8f3/8f/4 F3/8F3/8G/4G3/8A3/8A/4 B3/8B3/8c/4c3/8d3/8d/4 | 
ee ee f3/8f3/8g/4g3/8a3/8a/4 b3/8b3/8c'/4c'3/8d'3/8d'/4 | e'3/8e'3/8e'/4e'3/8e'3/8e'/4 e'3/8e'3/8e'/4e'3/8e'3/8e'/4 e'3/2d'/ b3/2d'/ | 
c'3/2e'/ c'3/2a/ f3/2b/ g3/2e/ | a3/8a3/8a/4a3/8a3/8a/4 a3/8a3/8a/4a/f/ g3/8g3/8g/4g3/8g3/8g/4 g3/8g3/8g/4g/e/ | 
a3/8a3/8a/4a3/8a3/8a/4 a3/8a3/8a/4a/f/ g3/8g3/8g/4g3/8g3/8g/4 g3/8g3/8g/4g/e/ | 
a3/8b3/8a/4b3/8a3/8b/4 a3/8b3/8a/4b3/8a3/8b/4 a3/8b3/8a/4b3/8a3/8b/4 a3/8b3/8a/4b3/8a3/8b/4 | 
a3/8b3/8a/4b3/8a3/8b/4 a3/8b3/8a/4b3/8a3/8b/4 ab/4b/4c'/4c'/4 d'/4d'/4e'/4e'/4f'/4f'/4g'/4g'/4 | 
a'8 | z8 | A3/8A3/8A/4A3/8A3/8A/4 A3/8A3/8A/4A3/8A3/8A/4 A3/8A3/8A/4A3/8A3/8A/4 A3/8A3/8A/4A3/8A3/8A/4 | 
A3/8A3/8A/4A3/8A3/8A/4 A3/8A3/8A/4A3/8A3/8A/4 A3/8A3/8A/4A3/8A3/8A/4 A3/8A3/8A/4A3/8A3/8A/4 | 
B3/8B3/8B/4B3/8B3/8B/4 B3/8B3/8B/4B3/8B3/8B/4 B3/8B3/8B/4B3/8B3/8B/4 B3/8B3/8B/4B3/8B3/8B/4 | 
B3/8B3/8B/4B3/8B3/8B/4 B3/8B3/8B/4B3/8B3/8B/4 B3/8B3/8B/4B3/8B3/8B/4 B3/8B3/8B/4B3/8B3/8B/4 | 
c3/8c3/8c/4c3/8c3/8c/4 c3/8c3/8c/4c3/8c3/8c/4 c3/8c3/8c/4c3/8c3/8c/4 c3/8c3/8c/4c3/8c3/8c/4 | 
c3/8c3/8c/4c3/8c3/8c/4 c3/8c3/8c/4c3/8c3/8c/4 c3/8c3/8c/4c3/8c3/8c/4 c3/8c3/8c/4c3/8c3/8c/4 | 
[a8c8E8A,8] | z8 | 
 

